blockchains/cardano/logo.svg

<svg fill="none" height="250" viewBox="0 0 250 250" width="250" xmlns="http://www.w3.org/2000/svg"><path d="m121.933 11.1015c5.449-2.84105 12.1 3.75 9.2 9.194-1.681 4.437-8.056 5.617-11.312 2.235-3.446-3.247-2.321-9.663 2.112-11.429zm-58.6069 6.316c3.31-1.363 7.5 1.67 7.162 5.278.351 3.916-4.437 6.8-7.811 4.938-4.47-1.731-3.959-8.988.649-10.215zm120.0329 10.326c-5.173-.625-5.991-8.757-1.011-10.4 3.863-1.884 7.406 1.649 7.971 5.31-.81 3.126-3.428 5.989-6.96 5.085zm-106.6999 14.6141c5.534-3.5 13.4299 1.712 12.5789 8.14-.287 6.49-8.9079 10.2501-13.7709 5.862-4.7-3.446-3.99-11.353 1.192-14zm84.4759 3.716c2.471-6.356 12.475-6.556 15.285-.356 2.777 4.82-.639 10.789-5.587 12.427-6.555 1.224-12.781-5.862-9.695-12.066zm-46.26 11.708c-.054-5.469 4.927-9.544 10.125-9.916 3.447.691 7.205 2.16 8.684 5.639 2.756 4.8.309 11.4061-4.671 13.6091-2.277 1.276-4.97.8-7.45.649-3.791-1.861-6.984-5.511-6.687-9.9801zm-87.1559 7.9681c5.055-3.108 11.875 2.564 9.961 8.055-1.054 4.75-7.439 6.682-11.089 3.65-3.9-2.841-3.279-9.673 1.128-11.705zm187.1559-.01c4.289-3.33 11.366.49 10.855 5.9.288 4.938-5.831 8.661-10.089 6.119-4.689-2.107-5.167-9.321-.766-12.024zm-75.49 9.826c7.077-2.542 15.484.5 19.518 6.81 5.321 7.7141 2.49 19.4613-5.768 23.8873-8.556 5.235-21.05.8-24.21-8.7572-3.588-8.554 1.639-19.2591 10.46-21.9401zm-41.525.847c7.844-3.7 18.4-.6 22.189 7.427 4.459 7.8101 1.011 18.6853-6.96 22.7173-7.981 4.533-19.241 1.1-23.1-7.2892-4.3349-8.108-.489-19.1211 7.871-22.8551zm-41.5789 14.2151c.6-5.0541 5.364-8.3421 10.174-8.6831 5.183.625 9.323 4.6501 9.886 9.9001-.34 5.192-4.353 10.2682-9.855 10.2362-6.054.521-11.361-5.5002-10.205-11.4492zm122.8099-7.5801c6.215-3.618 14.845 1.649 14.569 8.7891.426 7.565-9.125 12.9002-15.314 8.4592-6.429-3.6952-5.928-14.1002.745-17.2473zm-98.1299 26.6593c7.2689-2 15.5799 1.426 19.1449 8.107 3.9 6.725 2.309 16.067-3.756 21-7.779 7.235-22.1249 4.33-26.2649-5.544-4.757-9.051 1.021-21.181 10.876-23.564zm78.7609-.038c7.066-2.021 15.367.7 19.166 7.14 5.023 7.363 2.625 18.344-4.852 23.09-7.833 5.511-19.965 2.617-24.275-6-5.225-8.914.033-21.511 9.961-24.23zm-125.5129 8.4c6.279-2.375 13.239 4.554 10.695 10.779-1.553 5.67-9.545 7.77-13.674 3.586-4.831-3.926-3.042-12.662 2.98-14.365zm170.1909 9.034c-.181-5.2 3.625-9.81 8.96-10.1 4.3.681 8.481 4.15 8.141 8.831.394 6.183-7.056 10.385-12.324 7.48-2.469-1.255-3.735-3.787-4.777-6.214zm-201.06187-5.985c3.777-1.649 8.44997 1.625 7.58797 5.82-.2 4.75-7.21497 6.576-9.79097 2.607-2.27699-2.751-.914996-7.001 2.203-8.427zm238.17887-.1c2.66-1.894 6.928-.533 7.981 2.575 1.788 3.394-1.49 8.044-5.31 7.47-5.363.489-7.1-7.684-2.671-10.045zm-140.037 22.8c9.94-2.585 20.625 5.7 20.688 15.939.649 10.342-9.875 19.514-20.05 17.125-7.865-1.266-14.036-8.842-13.781-16.79-.021-7.6 5.715-14.666 13.144-16.274zm39.366-.021c10.089-2.82 21.092 5.617 20.932 16.089.533 10.151-9.663 19.014-19.625 17-9.375-1.212-16.292-11.512-13.675-20.61 1.321-6.062 6.386-10.992 12.368-12.479zm-75.8999 6.3c6.981-1.191 13.526 6.6 10.695 13.226-2.065 7.064-12.345 8.98-16.89 3.21-5.331-5.541-1.351-15.671 6.195-16.436zm115.4429.321c6.225-2.607 13.866 2.777 13.387 9.534.25 7.438-9.184 12.566-15.271 8.225-6.9-3.9-5.64-15.367 1.884-17.759zm32.268 32.365c-2.437-4.544 1.99-10.566 7.035-9.725 2.511-.042 4.268 1.936 5.875 3.6.33 2.693.884 5.9-1.351 7.98-3.035 3.841-9.91 2.745-11.559-1.851zm-184.9569-8.459c4.715-3.139 11.5 1.542 10.44 7.055-.564 4.875-6.7 7.661-10.75 4.9-4.341-2.511-4.181-9.661.31-11.95zm93.1499 10.21c6.173-2.724 14.036 2.65 13.451 9.449.458 7.512-9.269 12.715-15.3 8.2-6.7-3.874-5.586-15.27 1.853-17.652zm-43.1499 10.06c5.257-2.766 12.313 2.011 11.834 7.9.16 4.831-4.555 8.949-9.323 8.235-3.949-.085-6.524-3.625-7.79-6.991.065-3.669 1.575-7.755 5.279-9.139zm87.3929.09c5.406-3.341 13.09 1.458 12.579 7.75.139 6.576-8.545 10.789-13.579 6.469-4.874-3.386-4.279-11.526 1-14.219zm15.2 37.571c-2.4-3.639.426-8.023 4.331-8.852 3.14.639 6.46 3 5.8 6.64-.458 4.926-7.663 6.438-10.131 2.212zm-120.6389-3.16c.958-2.884 3.278-5.75 6.673-5 4.949.351 6.418 7.81 2.086 10.109-3.895 2.626-8.414-.97-8.759-5.109zm58.1999 3.309c.948-4.266 6.47-6.341 10.11-4.075 2.4 1.033 3.107 3.724 3.725 6.011-.33 1.191-.625 2.384-.915 3.575-1.49 1.766-3.4 3.533-5.885 3.469-4.609.54-8.766-4.67-7.035-8.98z" fill="#3cc8c8"/></svg>

<svg width="250" height="250" viewBox="0 0 250 250" fill="none" xmlns="http://www.w3.org/2000/svg">
<path d="M121.933 11.1015C127.382 8.26045 134.033 14.8515 131.133 20.2955C129.452 24.7325 123.077 25.9125 119.821 22.5305C116.375 19.2835 117.5 12.8675 121.933 11.1015ZM63.3261 17.4175C66.6361 16.0545 70.8261 19.0875 70.4881 22.6955C70.8391 26.6115 66.0511 29.4955 62.6771 27.6335C58.2071 25.9025 58.7181 18.6455 63.3261 17.4185V17.4175ZM183.359 27.7435C178.186 27.1185 177.368 18.9865 182.348 17.3435C186.211 15.4595 189.754 18.9925 190.319 22.6535C189.509 25.7795 186.891 28.6425 183.359 27.7385V27.7435ZM76.6591 42.3576C82.1931 38.8576 90.089 44.0696 89.238 50.4976C88.951 56.9876 80.3301 60.7477 75.4671 56.3596C70.7671 52.9136 71.4771 45.0066 76.6591 42.3596V42.3576ZM161.135 46.0736C163.606 39.7176 173.61 39.5176 176.42 45.7176C179.197 50.5376 175.781 56.5066 170.833 58.1446C164.278 59.3686 158.052 52.2826 161.138 46.0786L161.135 46.0736ZM114.875 57.7816C114.821 52.3126 119.802 48.2376 125 47.8656C128.447 48.5566 132.205 50.0256 133.684 53.5046C136.44 58.3046 133.993 64.9107 129.013 67.1137C126.736 68.3897 124.043 67.9137 121.563 67.7627C117.772 65.9017 114.579 62.2517 114.876 57.7826L114.875 57.7816ZM27.7191 65.7497C32.7741 62.6417 39.5941 68.3137 37.6801 73.8047C36.6261 78.5547 30.2411 80.4867 26.5911 77.4547C22.6911 74.6137 23.3121 67.7817 27.7191 65.7497ZM214.875 65.7397C219.164 62.4097 226.241 66.2297 225.73 71.6397C226.018 76.5777 219.899 80.3007 215.641 77.7587C210.952 75.6517 210.474 68.4377 214.875 65.7347V65.7397ZM139.385 75.5657C146.462 73.0237 154.869 76.0657 158.903 82.3757C164.224 90.0898 161.393 101.837 153.135 106.263C144.579 111.498 132.085 107.063 128.925 97.5058C125.337 88.9518 130.564 78.2467 139.385 75.5657V75.5657ZM97.86 76.4127C105.704 72.7127 116.26 75.8127 120.049 83.8397C124.508 91.6498 121.06 102.525 113.089 106.557C105.108 111.09 93.848 107.657 89.989 99.2678C85.6541 91.1598 89.5 80.1467 97.86 76.4127ZM56.2811 90.6278C56.8811 85.5737 61.6451 82.2857 66.4551 81.9447C71.6381 82.5697 75.7781 86.5948 76.3411 91.8448C76.0011 97.0368 71.9881 102.113 66.4861 102.081C60.4321 102.602 55.1251 96.5808 56.2811 90.6318V90.6278ZM179.091 83.0477C185.306 79.4297 193.936 84.6967 193.66 91.8368C194.086 99.4018 184.535 104.737 178.346 100.296C171.917 96.6008 172.418 86.1958 179.091 83.0487V83.0477ZM80.9611 109.707C88.23 107.707 96.541 111.133 100.106 117.814C104.006 124.539 102.415 133.881 96.35 138.814C88.571 146.049 74.2251 143.144 70.0851 133.27C65.3281 124.219 71.1061 112.089 80.9611 109.706V109.707ZM159.722 109.669C166.788 107.648 175.089 110.369 178.888 116.809C183.911 124.172 181.513 135.153 174.036 139.899C166.203 145.41 154.071 142.516 149.761 133.899C144.536 124.985 149.794 112.388 159.722 109.669V109.669ZM34.2091 118.069C40.4881 115.694 47.4481 122.623 44.9041 128.848C43.3511 134.518 35.3591 136.618 31.2301 132.434C26.3991 128.508 28.1881 119.772 34.2101 118.069H34.2091ZM204.4 127.103C204.219 121.903 208.025 117.293 213.36 117.003C217.66 117.684 221.841 121.153 221.501 125.834C221.895 132.017 214.445 136.219 209.177 133.314C206.708 132.059 205.442 129.527 204.4 127.1V127.103ZM3.33813 121.118C7.11513 119.469 11.7881 122.743 10.9261 126.938C10.7261 131.688 3.71113 133.514 1.13513 129.545C-1.14186 126.794 0.220134 122.544 3.33813 121.118ZM241.517 121.018C244.177 119.124 248.445 120.485 249.498 123.593C251.286 126.987 248.008 131.637 244.188 131.063C238.825 131.552 237.088 123.379 241.517 121.018ZM101.48 143.818C111.42 141.233 122.105 149.518 122.168 159.757C122.817 170.099 112.293 179.271 102.118 176.882C94.253 175.616 88.082 168.04 88.337 160.092C88.316 152.492 94.052 145.426 101.481 143.818H101.48ZM140.846 143.797C150.935 140.977 161.938 149.414 161.778 159.886C162.311 170.037 152.115 178.9 142.153 176.886C132.778 175.674 125.861 165.374 128.478 156.276C129.799 150.214 134.864 145.284 140.846 143.797V143.797ZM64.9461 150.097C71.9271 148.906 78.4721 156.697 75.6411 163.323C73.5761 170.387 63.2961 172.303 58.7511 166.533C53.4201 160.992 57.4001 150.862 64.9461 150.097V150.097ZM180.389 150.418C186.614 147.811 194.255 153.195 193.776 159.952C194.026 167.39 184.592 172.518 178.505 168.177C171.605 164.277 172.865 152.81 180.389 150.418ZM212.657 182.783C210.22 178.239 214.647 172.217 219.692 173.058C222.203 173.016 223.96 174.994 225.567 176.658C225.897 179.351 226.451 182.558 224.216 184.638C221.181 188.479 214.306 187.383 212.657 182.787V182.783ZM27.7001 174.324C32.4151 171.185 39.2001 175.866 38.1401 181.379C37.5761 186.254 31.4401 189.04 27.3901 186.279C23.0491 183.768 23.2091 176.618 27.7001 174.329V174.324ZM120.85 184.534C127.023 181.81 134.886 187.184 134.301 193.983C134.759 201.495 125.032 206.698 119.001 202.183C112.301 198.309 113.415 186.913 120.854 184.531L120.85 184.534ZM77.7001 194.594C82.9571 191.828 90.0131 196.605 89.5341 202.494C89.6941 207.325 84.9791 211.443 80.2111 210.729C76.2621 210.644 73.6871 207.104 72.4211 203.738C72.4861 200.069 73.9961 195.983 77.7001 194.599V194.594ZM165.093 194.684C170.499 191.343 178.183 196.142 177.672 202.434C177.811 209.01 169.127 213.223 164.093 208.903C159.219 205.517 159.814 197.377 165.093 194.684ZM180.293 232.255C177.893 228.616 180.719 224.232 184.624 223.403C187.764 224.042 191.084 226.403 190.424 230.043C189.966 234.969 182.761 236.481 180.293 232.255ZM59.6541 229.095C60.6121 226.211 62.9321 223.345 66.3271 224.095C71.2761 224.446 72.7451 231.905 68.4131 234.204C64.5181 236.83 59.9991 233.234 59.6541 229.095ZM117.854 232.404C118.802 228.138 124.324 226.063 127.964 228.329C130.364 229.362 131.071 232.053 131.689 234.34C131.359 235.531 131.064 236.724 130.774 237.915C129.284 239.681 127.374 241.448 124.889 241.384C120.28 241.924 116.123 236.714 117.854 232.404Z" fill="#3CC8C8"/>
</svg>
